X:33
T: Georg von Fronspergs Lied ueber Hofgunst
N: A0391
O: Europa, Mitteleuropa, Deutschland
N: Joh. Ott 1534 No. 39 und 40.
R: Romanze, Ballade, Lied, religioeses Lied
M: 4/2
L: 1/2
K: A
e4 | =f2f2 | e2e2 | =c2c2 | d2z
e | =fed=c | e=fd2 | =c2z
c | Be2d | e2ze | =g2=f2 | e2z
e | =g2=f2 | e2zd | =f2e2 | d2z
d | =c2d2 | e2z=c | dAB2 | A4

@@@ Tune index: 346
